!!!COM: Palestrina, Giovanni Perluigi da
!!!OPR: Missa Nigra sum
!!!OMD: Credo
!!!OTL: Et unam sanctam
**kern	**kern	**kern	**kern	**kern
*Ibass	*Itenor	*Itenor	*Icalto	*Icant
!Bassus	!Tenor 2	!Tenor 1	!Altus	!Cantus
*clefF4	*clefGv2	*clefGv2	*clefG2	*clefG2
*k[b-]	*k[b-]	*k[b-]	*k[b-]	*k[b-]
*D:aeo	*D:aeo	*D:aeo	*D:aeo	*D:aeo
*M4/2	*M4/2	*M4/2	*M4/2	*M4/2
=189	=189	=189	=189	=189
2G	[0G	2B-	0g	1dd
2B-	.	2d	.	.
2B-	.	2d	.	1r
2G	.	2e-	.	.
=190	=190	=190	=190	=190
1B-	1G]	1d	0r	0r
2A	1r	2c	.	.
2G	.	2B-	.	.
=191	=191	=191	=191	=191
2G	2r	2.A	2r	0r
2F#	2d	.	2a	.
.	.	4A	.	.
[1G	2d	1G	2b-	.
.	2e-	.	2g	.
=192	=192	=192	=192	=192
1G]	2.d	1g	2.b-	1r
.	4d	.	4b-	.
1r	[1d	2r	1a	1ff
.	.	2a	.	.
=193	=193	=193	=193	=193
0r	2d]	2a	1f	2ff
.	4B-	2b-	.	2dd
.	4c	.	.	.
.	4d	2.a	4f	2.ff
.	4e	.	4g	.
.	2f	.	4a	.
.	.	4a	4b-	4ff
=194	=194	=194	=194	=194
0r	2c	2g	2cc	2ee
.	2d	2f	2a	2dd
.	1A	2e	2.a	2dd
.	.	2e	.	2cc#
.	.	.	4g	.
=195	=195	=195	=195	=195
2r	2.B-	1d	2f	2.dd
2G	.	.	2g	.
.	4A	.	.	4cc
2.G	4B-	1g	1d	1b-
.	4c	.	.	.
.	4d	.	.	.
4G	4B-	.	.	.
=196	=196	=196	=196	=196
2A	2c	2e	2r	1a
2F	1d	2f	2a	.
2G	.	1e	2b-	1r
2A	2c#	.	2a	.
=197	=197	=197	=197	=197
2.B-	0d	2r	1f	2r
.	.	2d	.	2dd
4A	.	.	.	.
1G	.	2.B	2r	2.dd
.	.	.	2g	.
.	.	4B	.	4dd
=198	=198	=198	=198	=198
1C	0r	1c	2.g	1ee
.	.	.	4g	.
1r	.	2A	2a	2cc
.	.	2d	2f	2dd
=199	=199	=199	=199	=199
0r	1r	2c	2g	2ee
.	.	2f	2a	2.ff
.	2r	4B-	1b-	.
.	.	4c	.	4ee
.	2d	4d	.	4dd
.	.	4e	.	4cc
=200	=200	=200	=200	=200
0r	2.d	1f	2.a	1dd
.	4d	.	8g	.
.	.	.	8f	.
.	2e	1r	2g	2.cc
.	2c	.	[2a	.
.	.	.	.	8b-
.	.	.	.	8a
=201	=201	=201	=201	=201
1r	2d	1r	2a]	1b-
.	2e	.	2g	.
[1D	1f	2r	[1a	1a
.	.	[2d	.	.
=202	=202	=202	=202	=202
2D]	2.f	2d]	1a]	2r
2D	.	2d	.	1a
.	8e	.	.	.
.	8d	.	.	.
2A	4c	2e	1r	.
.	4d	.	.	.
2A	4e	2c	.	2a
.	4f	.	.	.
=203	=203	=203	=203	=203
1G	1g	2d	1r	2b-
.	.	2e	.	2g
1D	1r	2f	2r	2a
.	.	2f	[2d	2a
=204	=204	=204	=204	=204
1.G	0r	1.g	2d]	2b-
.	.	.	2d	1b-
.	.	.	2e	.
2A	.	2e	2c	[2a
=205	=205	=205	=205	=205
2B-	2r	1r	2d	4a]
.	.	.	.	4g
2c	2c	.	2e	2g
2F	2c	2r	2f	2a
[2F	[2f	[2a	2f	2cc
=206	=206	=206	=206	=206
2F]	4f]	2a]	2c	2cc
.	4e	.	.	.
2F	4d	2a	2A	2.ff
.	4c	.	.	.
[1B-	[1d	2.f	2r	.
.	.	.	.	4ee
.	.	.	[2f	4dd
.	.	4e	.	4cc
=207	=207	=207	=207	=207
1B-]	2d]	4d	2f]	1dd
.	.	4c	.	.
.	2G	2d	2g	.
1A	2r	1e	2a	1cc
.	[2c	.	2a	.
=208	=208	=208	=208	=208
2.F	4c]	2.f	2.a	2.cc
.	4c	.	.	.
.	2c	.	.	.
4F	.	4f	4a	4cc
2F	2A	2c	2a	2cc
2F	[2A	2c	2a	2cc
=209	=209	=209	=209	=209
1D	2A]	1d	1f	1.ff
.	2F	.	.	.
1C	2c	[1G	1g	.
.	2c	.	.	2ee
=210	=210	=210	=210	=210
1.G	1B-	1G]	1.b-	4dd
.	.	.	.	4cc
.	.	.	.	4b-
.	.	.	.	4a
.	1d	2r	.	2g
2F#	.	2d	2a	2a
=211	=211	=211	=211	=211
0G	2r	2d	1g	0b-
.	2d	1B-	.	.
.	1g	.	1d	.
.	.	4A	.	.
.	.	4G	.	.
=212	=212	=212	=212	=212
1D	2g	2.d	1r	2a
.	2f#	.	.	2a
.	.	4c	.	.
1r	2g	4B-	2r	1dd
.	.	4A	.	.
.	2g	2G	2d	.
=213	=213	=213	=213	=213
1r	2e	0A	1a	2dd
.	2e	.	.	2cc#
1D	1d	.	2a	2dd
.	.	.	2f	2dd
=214	=214	=214	=214	=214
1d	1G	1r	2g	2b-
.	.	.	2g	2b-
2d	1A	2r	2e	2a
2c#	.	2e	2e	2ee
=215	=215	=215	=215	=215
2d	1r	1a	0d	2ff
2d	.	.	.	2dd
2B-	2r	2a	.	2ff
2B-	2d	2g	.	4ee
.	.	.	.	4dd
=216	=216	=216	=216	=216
1A	2e	2a	2r	4cc#
.	.	.	.	4dd
.	2c#	2a	2e	2.ee
1r	2d	2f	2a	.
.	.	.	.	4dd
.	2d	2f	2a	[2dd
=217	=217	=217	=217	=217
1r	1A	1e	2.a	2dd]
.	.	.	.	2cc#
.	.	.	4a	.
[1d	2r	2.f	1a	2dd
.	4d	.	.	[2ff
.	4e	4g	.	.
=218	=218	=218	=218	=218
2d]	4f	1a	2d	2ff]
.	4g	.	.	.
2c	2a	.	2e	2ee
2B-	4d	1r	1f	2dd
.	4e	.	.	.
2A	4f	.	.	2cc
.	8e	.	.	.
.	8d	.	.	.
=219	=219	=219	=219	=219
1G	4e	1r	1g	1b-
.	4d	.	.	.
.	1d	.	.	.
1A	.	2r	1e	2.a
.	2c#	[2a	.	.
.	.	.	.	4g
=220	=220	=220	=220	=220
0D	1.a	2a]	1.d	2f
.	.	2g	.	2e
.	.	2f	.	1d
.	2g	2e	2e	.
=221	=221	=221	=221	=221
1.d	2f	2d	2f	1.ff
.	2e	2e	2g	.
.	2d	4f	1a	.
.	.	4g	.	.
2c	2e	2a	.	2ee
=222	=222	=222	=222	=222
2B-	1f	4d	0r	2dd
.	.	4e	.	.
2A	.	4f	.	2cc
.	.	8e	.	.
.	.	8d	.	.
1G	2.g	2e	.	1b-
.	.	[2d	.	.
.	4f	.	.	.
=223	=223	=223	=223	=223
1A	1e	2d]	2r	1a
.	.	2c#	1a	.
1D	[1a	1d	.	[1ff
.	.	.	2g	.
=224	=224	=224	=224	=224
1.d	1a]	2r	1f	2ff]
.	.	2a	.	4ee
.	.	.	.	4dd
.	1r	2f	2d	2ff
2c	.	[2g	2e	[2ee
=225	=225	=225	=225	=225
1B-	1r	4g]	2f	4ee]
.	.	4f	.	4dd
.	.	2d	2g	1dd
1A	2r	1e	1a	.
.	[2a	.	.	2cc#
=226	=226	=226	=226	=226
2.D	4a]	[0d	2f	[0dd
.	4g	.	.	.
.	4f	.	1a	.
4E	4e	.	.	.
2F	4d	.	.	.
.	4c	.	.	.
[2G	4B-	.	2g	.
.	4A	.	.	.
=227	=227	=227	=227	=227
2G]	2G	1d_	2b-	1dd_
2F#	2A	.	2a	.
1G	1B-	1d_	1g	1dd_
=228	=228	=228	=228	=228
0D	0A	0d]	0f#	0dd]
==	==	==	==	==
*-	*-	*-	*-	*-
!!!CDT: 1525/^1526/-1594/2/2
!!!OCY: Italia
!!!AGN: Mass (Parody)
!!!AST: renaissance, vocal
!!!ASW: Motet 1532 (Lhéritier)
!!!PWK: Masses, Book 5
!!!RNB: Cadence finals: G,A
!!!YOR: Le Opere Complete, v. 15, p. 89
!!!YOO: Rome, Italy: Fratelli Scalera
!!!END: 1992//
!!!EED: John Miller
!!!YEC: Copyright 2000, John Miller
!!!YEN: United States of America
!!!YEM: Rights to all derivative electronic formats reserved.
!!!YEM: Refer to licensing agreement for further details.
!!!YEM: This file must be accompanied by the licensing agreement.
!!!YEM: A copy of the licensing agreement may be found at http://www.music-cog.ohio-state.edu/HumdrumDatabases/Palestrina/license.txt
!!!EMD: converted to Humdrum by Bret Aarden
